assets/Turtle/Flat/turtle_flat.svg

<svg width="32" height="32" viewBox="0 0 32 32" fill="none" xmlns="http://www.w3.org/2000/svg">
<path d="M9 23.5C9 24.4793 8.59777 25.3647 7.94949 26H13V28.5C13 29.3284 12.3284 30 11.5 30H6.5C5.67157 30 5 29.3284 5 28.5V26.9646C3.30385 26.7219 2 25.2632 2 23.5C2 21.567 3.567 20 5.5 20C7.433 20 9 21.567 9 23.5Z" fill="#C3EF3C"/>
<path d="M27.5106 23.5352C27.5106 23.5352 29.4322 25.3797 29.6847 25.5999C29.9373 25.8201 30.0833 26.237 29.9491 26.5359C29.815 26.8348 29.4835 27 29.231 27H28V28.5C28 29.3284 27.3284 30 26.5 30H21.5C20.6716 30 20 29.3284 20 28.5V26H27.039L27.5106 23.5352Z" fill="#C3EF3C"/>
<path d="M16.4226 13C9.98538 13 5 17.6684 5 24V27H28V24C28 17.6684 22.8599 13 16.4226 13Z" fill="#008463"/>
<path d="M5 22.5C5 22.7761 4.77614 23 4.5 23C4.22386 23 4 22.7761 4 22.5C4 22.2239 4.22386 22 4.5 22C4.77614 22 5 22.2239 5 22.5Z" fill="#1C1C1C"/>
<path d="M10.8536 16.1464C10.6583 15.9512 10.3417 15.9512 10.1464 16.1464C9.95119 16.3417 9.95119 16.6583 10.1464 16.8536C10.5722 17.2793 11.4654 17.8989 12.7512 18.3631L10.6303 22.768C9.30576 22.1974 8.32868 21.5518 7.8254 21.1204C7.61573 20.9407 7.30008 20.9649 7.12037 21.1746C6.94066 21.3843 6.96494 21.6999 7.17461 21.8796C8.41619 22.9438 11.9615 25 16.5 25C21.0385 25 24.5838 22.9438 25.8254 21.8796C26.0351 21.6999 26.0593 21.3843 25.8796 21.1746C25.6999 20.9649 25.3843 20.9407 25.1746 21.1204C24.6708 21.5522 23.6924 22.1986 22.3659 22.7696L20.2449 18.3646C21.5328 17.9002 22.4274 17.2797 22.8536 16.8536C23.0488 16.6583 23.0488 16.3417 22.8536 16.1464C22.6583 15.9512 22.3417 15.9512 22.1464 16.1464C21.5754 16.7174 19.5701 18 16.5 18C13.4299 18 11.4246 16.7174 10.8536 16.1464ZM19.2774 18.6603L21.4322 23.1357C20.0383 23.6303 18.3585 24 16.5 24C14.6397 24 12.9586 23.6296 11.5638 23.1343L13.7185 18.6593C14.5339 18.8664 15.4654 19 16.5 19C17.5329 19 18.463 18.8668 19.2774 18.6603Z" fill="#00D26A"/>
</svg>

<svg xmlns="http://www.w3.org/2000/svg" width="32" height="32" fill="none"><path fill="#C3EF3C" d="M9 23.5A3.49 3.49 0 0 1 7.95 26H13v2.5a1.5 1.5 0 0 1-1.5 1.5h-5A1.5 1.5 0 0 1 5 28.5v-1.535A3.5 3.5 0 1 1 9 23.5ZM27.51 23.535s1.922 1.845 2.175 2.065c.252.22.398.637.264.936a.83.83 0 0 1-.718.464H28v1.5a1.5 1.5 0 0 1-1.5 1.5h-5a1.5 1.5 0 0 1-1.5-1.5V26h7.039l.472-2.465Z"/><path fill="#008463" d="M16.423 13C9.985 13 5 17.668 5 24v3h23v-3c0-6.332-5.14-11-11.577-11Z"/><path fill="#1C1C1C" d="M5 22.5a.5.5 0 1 1-1 0 .5.5 0 0 1 1 0Z"/><path fill="#00D26A" d="M10.854 16.146a.5.5 0 0 0-.708.708c.426.425 1.32 1.045 2.605 1.51l-2.12 4.404c-1.325-.57-2.302-1.216-2.806-1.648a.5.5 0 1 0-.65.76C8.416 22.944 11.96 25 16.5 25c4.538 0 8.084-2.056 9.325-3.12a.5.5 0 1 0-.65-.76c-.504.432-1.483 1.079-2.81 1.65l-2.12-4.405c1.288-.465 2.182-1.085 2.609-1.511a.5.5 0 0 0-.708-.708C21.576 16.717 19.57 18 16.5 18s-5.075-1.283-5.646-1.854Zm8.423 2.514 2.155 4.476A14.792 14.792 0 0 1 16.5 24c-1.86 0-3.541-.37-4.936-.866l2.155-4.475c.815.207 1.746.341 2.781.341 1.033 0 1.963-.133 2.777-.34Z"/></svg>
